svgs/duotone/square-left.svg

<svg xmlns="http://www.w3.org/2000/svg" viewBox="0 0 448 512"><!--! Font Awesome Pro 6.3.0 by @fontawesome - https://fontawesome.com License - https://fontawesome.com/license (Commercial License) Copyright 2023 Fonticons, Inc. --><defs><style>.fa-secondary{opacity:.4}</style></defs><path class="fa-primary" d="M214.1 129.2C220.1 131.7 224 137.5 224 144v64h96c17.67 0 32 14.33 32 32v32c0 17.67-14.33 32-32 32h-96v64c0 6.469-3.891 12.31-9.875 14.78c-5.984 2.484-12.86 1.109-17.44-3.469l-112-112c-6.248-6.248-6.248-16.38 0-22.62l112-112C201.3 128.1 208.1 126.7 214.1 129.2z"/><path class="fa-secondary" d="M0 96v320c0 35.35 28.65 64 64 64h320c35.35 0 64-28.65 64-64V96c0-35.35-28.65-64-64-64H64C28.65 32 0 60.65 0 96zM214.1 129.2C220.1 131.7 224 137.5 224 144v64h96c17.67 0 32 14.33 32 32v32c0 17.67-14.33 32-32 32h-96v64c0 6.469-3.891 12.31-9.875 14.78c-5.984 2.484-12.86 1.109-17.44-3.469l-112-112c-6.248-6.248-6.248-16.38 0-22.62l112-112C201.3 128.1 208.1 126.7 214.1 129.2z"/></svg>

<svg xmlns="http://www.w3.org/2000/svg" viewBox="0 0 448 512"><!-- Font Awesome Pro 6.0.0-alpha2 by @fontawesome - https://fontawesome.com License - https://fontawesome.com/license (Commercial License) --><defs><style>.fa-secondary{opacity:.4}</style></defs><path d="M0 96V416C0 451.346 28.654 480 64 480H384C419.346 480 448 451.346 448 416V96C448 60.654 419.346 32 384 32H64C28.654 32 0 60.654 0 96ZM214.125 129.219C220.109 131.688 224 137.531 224 144V208H320C337.673 208 352 222.327 352 240V272C352 289.673 337.673 304 320 304H224V368C224 374.469 220.109 380.312 214.125 382.781C208.141 385.266 201.266 383.891 196.687 379.313L84.687 267.313C78.44 261.065 78.44 250.935 84.687 244.688L196.687 132.688C201.266 128.109 208.141 126.734 214.125 129.219Z" class="fa-secondary"/><path d="M214.123 129.219C220.108 131.688 223.998 137.531 223.998 144V208H319.998C337.671 208 351.998 222.327 351.998 240V272C351.998 289.673 337.671 304 319.998 304H223.998V368C223.998 374.469 220.108 380.312 214.123 382.781C208.139 385.266 201.264 383.891 196.686 379.313L84.686 267.313C78.438 261.065 78.438 250.935 84.686 244.688L196.686 132.688C201.264 128.109 208.139 126.734 214.123 129.219Z" class="fa-primary"/></svg>
